icon_installer/data/icons/scalable/actions/show-scale-symbolic.svg

<?xml version="1.0" encoding="UTF-8"?>
<svg height="16px" viewBox="0 0 16 16" width="16px" xmlns="http://www.w3.org/2000/svg">
    <path d="m 6.832031 0 c -0.460937 0 -0.832031 0.382812 -0.832031 0.855469 v 4.289062 c 0 0.472657 0.371094 0.855469 0.832031 0.855469 h 8.335938 c 0.460937 0 0.832031 -0.382812 0.832031 -0.855469 v -4.289062 c 0 -0.472657 -0.371094 -0.855469 -0.832031 -0.855469 z m -0.832031 8 l 2 2 l -3 3 l 1 1 l 3 -3 l 2 2 v -5 z m -5.53125 6 c -0.261719 0 -0.46875 0.230469 -0.46875 0.511719 v 0.976562 c 0 0.28125 0.207031 0.511719 0.46875 0.511719 h 3.0625 c 0.261719 0 0.46875 -0.230469 0.46875 -0.511719 v -0.976562 c 0 -0.28125 -0.207031 -0.511719 -0.46875 -0.511719 z m 0 0" fill="#222222"/>
</svg>

<svg xmlns="http://www.w3.org/2000/svg" width="16" height="16"><path fill="#222" d="M6.832 0A.843.843 0 0 0 6 .855v4.29c0 .472.371.855.832.855h8.336c.46 0 .832-.383.832-.855V.855A.843.843 0 0 0 15.168 0zM6 8l2 2-3 3 1 1 3-3 2 2V8zM.469 14c-.262 0-.469.23-.469.512v.976c0 .282.207.512.469.512H3.53c.262 0 .469-.23.469-.512v-.976C4 14.23 3.793 14 3.531 14zm0 0"/></svg>
